X:7
T:La polka pique de Bar s/Aube [ok]
R:
S:
N:
A:Champagne
G:
O:France
Z:<anamnese@laposte.net>
M:6/8
L:1/8
Q:1/4=135
K:G
B3d3 | GGG F3 | A3c3 | FFFG3 :: Bcd dcB | ABc B3 | GFG A2 d |1 cBA B2 G :|2 cBA G3 !D.C.! :|
